dist/static/img/svg/ic_ps-cross.svg

<svg width="24" height="24" viewBox="0 0 24 24" fill="none" xmlns="http://www.w3.org/2000/svg">
<path d="M16.1228 12.0003L22.8534 5.26962C23.2612 4.86193 23.5388 4.34249 23.6513 3.77698C23.7638 3.21148 23.7061 2.62531 23.4854 2.09262C23.2647 1.55993 22.891 1.10465 22.4116 0.784353C21.9322 0.464054 21.3685 0.29313 20.792 0.293197C20.409 0.292074 20.0296 0.366924 19.6758 0.513415C19.3219 0.659906 19.0006 0.875129 18.7305 1.14662L12 7.87756L5.26946 1.14662C4.72273 0.599881 3.9812 0.292724 3.208 0.292724C2.43481 0.292724 1.69328 0.599881 1.14655 1.14662C0.599813 1.69337 0.292662 2.43491 0.292662 3.20812C0.292662 3.98133 0.599813 4.72288 1.14655 5.26962L7.87716 12.0003L1.14655 18.7309C0.738826 19.1386 0.461164 19.6581 0.348676 20.2236C0.236187 20.7891 0.293926 21.3752 0.514589 21.9079C0.735253 22.4406 1.10893 22.8959 1.58836 23.2162C2.06778 23.5365 2.63143 23.7074 3.208 23.7074C3.59097 23.7085 3.97035 23.6336 4.32419 23.4871C4.67803 23.3406 4.9993 23.1254 5.26942 22.8539L12 16.1231L18.7305 22.8539C19.2774 23.3999 20.0187 23.7065 20.7915 23.7062C21.5643 23.7059 22.3053 23.3987 22.8518 22.8523C23.3982 22.3058 23.7053 21.5647 23.7056 20.7919C23.7059 20.0191 23.3994 19.2778 22.8534 18.7309L16.1228 12.0003ZM22.2066 22.2071C21.8313 22.5821 21.3225 22.7928 20.7919 22.7928C20.2614 22.7928 19.7525 22.5821 19.3772 22.2071L12.3233 15.153C12.2376 15.0672 12.1213 15.0191 12 15.0191C11.8787 15.0191 11.7624 15.0672 11.6766 15.153L4.62275 22.2074C4.24751 22.5826 3.73858 22.7934 3.20791 22.7934C2.67725 22.7934 2.16831 22.5826 1.79308 22.2074C1.41784 21.8321 1.20703 21.3232 1.20703 20.7925C1.20703 20.2618 1.41784 19.7529 1.79308 19.3777L8.84728 12.3238C8.93304 12.238 8.98121 12.1217 8.98121 12.0004C8.98121 11.8791 8.93304 11.7628 8.84728 11.6771L1.7933 4.6229C1.4181 4.24769 1.2073 3.73879 1.2073 3.20816C1.2073 2.67753 1.41808 2.16863 1.79328 1.79342C2.16848 1.4182 2.67737 1.20741 3.20799 1.2074C3.73861 1.2074 4.2475 1.41819 4.6227 1.7934L11.6766 8.84769C11.7624 8.93345 11.8787 8.98163 12 8.98163C12.1213 8.98163 12.2376 8.93345 12.3233 8.84769L19.3773 1.7934C19.7525 1.41816 20.2614 1.20734 20.792 1.20732C21.3227 1.2073 21.8316 1.41809 22.2068 1.7933C22.582 2.16852 22.7929 2.67743 22.7929 3.20808C22.7929 3.73873 22.5821 4.24766 22.2069 4.6229L15.1527 11.6771C15.0669 11.7628 15.0188 11.8791 15.0188 12.0004C15.0188 12.1217 15.0669 12.238 15.1527 12.3238L22.2069 19.3777C22.5815 19.7532 22.7919 20.262 22.7918 20.7924C22.7918 21.3229 22.5813 21.8316 22.2066 22.2071Z" fill="white"/>
<path fill-rule="evenodd" clip-rule="evenodd" d="M5.26946 1.14662L12 7.87756L18.7305 1.14662C19.0006 0.875129 19.3219 0.659906 19.6758 0.513415C20.0296 0.366924 20.409 0.292074 20.792 0.293197C21.3685 0.29313 21.9322 0.464054 22.4116 0.784353C22.891 1.10465 23.2647 1.55993 23.4854 2.09262C23.7061 2.62531 23.7638 3.21148 23.6513 3.77698C23.5388 4.34249 23.2612 4.86193 22.8534 5.26962L16.1228 12.0003L22.8534 18.7309C23.3994 19.2778 23.7059 20.0191 23.7056 20.7919C23.7053 21.5647 23.3982 22.3058 22.8518 22.8523C22.3053 23.3987 21.5643 23.7059 20.7915 23.7062C20.0187 23.7065 19.2774 23.3999 18.7305 22.8539L12 16.1231L5.26942 22.8539C4.9993 23.1254 4.67803 23.3406 4.32419 23.4871C3.97035 23.6336 3.59097 23.7085 3.208 23.7074C2.63143 23.7074 2.06778 23.5365 1.58836 23.2162C1.10893 22.8959 0.735253 22.4406 0.514589 21.9079C0.293926 21.3752 0.236187 20.7891 0.348676 20.2236C0.461164 19.6581 0.738826 19.1386 1.14655 18.7309L7.87716 12.0003L1.14655 5.26962C0.599813 4.72288 0.292662 3.98133 0.292662 3.20812C0.292662 2.43491 0.599813 1.69337 1.14655 1.14662C1.69328 0.599881 2.43481 0.292724 3.208 0.292724C3.9812 0.292724 4.72273 0.599881 5.26946 1.14662ZM7.46327 12.0002L0.93961 5.47653C0.337991 4.8749 3.17596e-06 4.05891 3.17596e-06 3.20807C3.17596e-06 2.35724 0.337989 1.54125 0.939608 0.939623C1.54123 0.337993 2.3572 0 3.20802 0C4.05883 0 4.8748 0.337993 5.47642 0.939623L12 7.46359L18.523 0.94015C18.8204 0.641338 19.1743 0.404198 19.5638 0.242948C19.9533 0.0817101 20.3709 -0.000703465 20.7924 0.000472524C21.4267 0.000487584 22.0468 0.188567 22.5742 0.540941C23.1018 0.893398 23.513 1.39439 23.7558 1.98056C23.9986 2.56674 24.0621 3.21175 23.9384 3.83403C23.8146 4.45632 23.509 5.02792 23.0604 5.47653L16.5367 12.0002L23.0603 18.5239C23.6612 19.1257 23.9986 19.9416 23.9983 20.792C23.998 21.6424 23.66 22.4578 23.0587 23.0592C22.4574 23.6605 21.642 23.9985 20.7916 23.9988C19.9412 23.9991 19.1255 23.6618 18.5237 23.061L12 16.537L5.4769 23.0603C5.17955 23.3591 4.82563 23.5962 4.43616 23.7575C4.04656 23.9188 3.62884 24.0012 3.20717 24M7.46327 12.0002L0.93961 18.5239C0.490963 18.9725 0.185423 19.5441 0.0616407 20.1664C-0.0621416 20.7887 0.00139423 21.4337 0.244213 22.0199C0.487031 22.6061 0.898225 23.1071 1.42579 23.4595C1.95311 23.8118 2.57302 23.9999 3.20717 24M12.3233 15.153L12.5303 14.946L19.5841 22C19.9045 22.3201 20.339 22.5001 20.7919 22.5001C21.2449 22.5001 21.6793 22.3202 21.9998 22C22.3195 21.6795 22.4991 21.2452 22.4991 20.7924C22.4992 20.3394 22.3196 19.905 21.9997 19.5843L14.9458 12.5307C14.8051 12.39 14.7261 12.1993 14.7261 12.0004C14.7261 11.8015 14.8051 11.6107 14.9458 11.4701L15.1527 11.6771C15.0669 11.7628 15.0188 11.8791 15.0188 12.0004C15.0188 12.1217 15.0669 12.238 15.1527 12.3238L22.2069 19.3777C22.5815 19.7532 22.7919 20.262 22.7918 20.7924C22.7918 21.3229 22.5813 21.8316 22.2066 22.2071C21.8313 22.5821 21.3225 22.7928 20.7919 22.7928C20.2614 22.7928 19.7525 22.5821 19.3772 22.2071L12.3233 15.153ZM4.62275 22.2074C4.24751 22.5826 3.73858 22.7934 3.20791 22.7934C2.67725 22.7934 2.16831 22.5826 1.79308 22.2074C1.41784 21.8321 1.20703 21.3232 1.20703 20.7925C1.20703 20.2618 1.41784 19.7529 1.79308 19.3777L8.84728 12.3238C8.93304 12.238 8.98121 12.1217 8.98121 12.0004C8.98121 11.8791 8.93304 11.7628 8.84728 11.6771L9.05424 11.4701C9.19489 11.6107 9.2739 11.8015 9.2739 12.0004C9.2739 12.1993 9.19489 12.39 9.05424 12.5307L2.00004 19.5846C1.67969 19.9049 1.49971 20.3394 1.49971 20.7925C1.49971 21.2455 1.67968 21.68 2.00004 22.0004C2.32039 22.3207 2.75488 22.5007 3.20792 22.5007C3.66097 22.5007 4.09546 22.3207 4.41581 22.0004L11.4697 14.946C11.6103 14.8054 11.8011 14.7263 12 14.7263C12.1989 14.7263 12.3897 14.8054 12.5303 14.946L12.3233 15.153C12.2376 15.0672 12.1213 15.0191 12 15.0191C11.8787 15.0191 11.7624 15.0672 11.6766 15.153L4.62275 22.2074ZM1.7933 4.6229L8.84728 11.6771L9.05424 11.4701L2.00027 4.4159L1.7933 4.6229ZM4.6227 1.7934C4.2475 1.41819 3.73861 1.2074 3.20799 1.2074C2.67737 1.20741 2.16848 1.4182 1.79328 1.79342C1.41808 2.16863 1.2073 2.67753 1.2073 3.20816C1.2073 3.73879 1.4181 4.24769 1.7933 4.6229L2.00027 4.4159C1.67995 4.09557 1.49999 3.66112 1.49998 3.20811C1.49998 2.7551 1.67993 2.32065 2.00024 2.00032C2.32056 1.68 2.755 1.50004 3.208 1.50003C3.661 1.50003 4.09545 1.67998 4.41577 2.0003L11.4697 9.05459C11.6103 9.19524 11.8011 9.27426 12 9.27426C12.1989 9.27426 12.3897 9.19524 12.5303 9.0546L19.5842 2.0003C19.9046 1.67995 20.339 1.49997 20.792 1.49995C21.2451 1.49994 21.6795 1.67989 21.9999 2.00022C22.3202 2.32055 22.5002 2.75501 22.5002 3.20804C22.5002 3.66107 22.3203 4.09555 22 4.4159L14.9458 11.4701L15.1527 11.6771L22.2069 4.6229C22.5821 4.24766 22.7929 3.73873 22.7929 3.20808C22.7929 2.67743 22.582 2.16852 22.2068 1.7933C21.8316 1.41809 21.3227 1.2073 20.792 1.20732C20.2614 1.20734 19.7525 1.41816 19.3773 1.7934L12.3233 8.84769C12.2376 8.93345 12.1213 8.98163 12 8.98163C11.8787 8.98163 11.7624 8.93345 11.6766 8.84769L4.6227 1.7934Z" fill="white"/>
</svg>

<svg width="24" height="24" viewBox="0 0 24 24" fill="none" xmlns="http://www.w3.org/2000/svg"><path d="M16.123 12l6.73-6.73A2.915 2.915 0 0020.792.293a2.896 2.896 0 00-2.062.854L12 7.877l-6.73-6.73A2.915 2.915 0 101.146 5.27L7.877 12l-6.73 6.73a2.915 2.915 0 004.122 4.124L12 16.124l6.73 6.73a2.916 2.916 0 004.123-4.123L16.123 12zm6.084 10.207a2.001 2.001 0 01-2.83 0l-7.054-7.054a.457.457 0 00-.646 0l-7.054 7.054a2.001 2.001 0 01-2.83-2.83l7.054-7.053a.457.457 0 000-.647L1.793 4.623a2 2 0 012.83-2.83l7.054 7.055a.457.457 0 00.646 0l7.054-7.055a2 2 0 112.83 2.83l-7.054 7.054a.457.457 0 000 .647l7.054 7.054a2.003 2.003 0 010 2.83z" fill="#fff"/><path fill-rule="evenodd" clip-rule="evenodd" d="M5.27 1.147L12 7.877l6.73-6.73a2.896 2.896 0 012.062-.854 2.915 2.915 0 012.061 4.977L16.123 12l6.73 6.73a2.915 2.915 0 01-4.123 4.124L12 16.124l-6.73 6.73a2.896 2.896 0 01-2.062.853 2.915 2.915 0 01-2.061-4.976L7.877 12l-6.73-6.73a2.915 2.915 0 014.122-4.123zM7.462 12L.94 5.477A3.208 3.208 0 015.476.94L12 7.464 18.523.94a3.191 3.191 0 012.27-.94 3.208 3.208 0 012.267 5.477L16.537 12l6.523 6.524a3.209 3.209 0 01-4.536 4.537L12 16.537 5.477 23.06a3.191 3.191 0 01-2.27.94m4.256-12L.94 18.524A3.208 3.208 0 003.207 24m9.116-8.847l.207-.207L19.584 22A1.71 1.71 0 0022 19.584l-7.054-7.053a.75.75 0 010-1.06l.207.206a.457.457 0 000 .647l7.054 7.054a2.003 2.003 0 01-1.415 3.415c-.53 0-1.04-.21-1.415-.586l-7.054-7.054zm-7.7 7.054a2.001 2.001 0 01-2.83-2.83l7.054-7.053a.457.457 0 000-.647l.207-.207a.75.75 0 010 1.06L2 19.586A1.708 1.708 0 104.416 22l7.054-7.054a.75.75 0 011.06 0l-.207.207a.457.457 0 00-.646 0l-7.054 7.054zM1.793 4.623l7.054 7.054.207-.207L2 4.416l-.207.207zm2.83-2.83a2 2 0 10-2.83 2.83L2 4.416A1.708 1.708 0 014.416 2l7.054 7.055a.75.75 0 001.06 0L19.584 2A1.708 1.708 0 0122 4.416l-7.054 7.054.207.207 7.054-7.054a2.001 2.001 0 00-2.83-2.83l-7.054 7.055a.457.457 0 01-.646 0L4.623 1.793z" fill="#fff"/></svg>
